packages/foundations/assets/icons/functional/images/tooling/wrench_14.svg

<svg width="14" height="14" viewBox="0 0 14 14" fill="none" xmlns="http://www.w3.org/2000/svg">
<g clip-path="url(#clip0_2214_8582)">
<path fill-rule="evenodd" clip-rule="evenodd" d="M8.54734 1.25629C7.43343 1.25629 6.36515 1.69879 5.57749 2.48644C4.78984 3.27409 4.34734 4.34238 4.34734 5.45629C4.34734 6.02819 4.44184 6.32079 4.48874 6.53849L1.45774 9.56949C1.39266 9.6345 1.34103 9.7117 1.3058 9.79668C1.27057 9.88166 1.25244 9.97275 1.25244 10.0647C1.25244 10.1567 1.27057 10.2478 1.3058 10.3328C1.34103 10.4178 1.39266 10.495 1.45774 10.56L3.43244 12.5403C3.74044 12.8301 4.17584 12.7923 4.42854 12.5403L7.45534 9.51209C7.74514 9.60449 8.24284 9.65629 8.54734 9.65629C9.66125 9.65629 10.7295 9.21379 11.5172 8.42614C12.3048 7.63848 12.7473 6.5702 12.7473 5.45629C12.7473 4.92429 12.6353 4.31879 12.4197 3.83859C12.2286 3.43399 11.6455 3.34369 11.3102 3.67899L9.53294 5.45489L8.54314 4.46509L10.3176 2.69059C10.3998 2.60835 10.4602 2.50694 10.4934 2.39551C10.5265 2.28409 10.5314 2.16616 10.5076 2.05238C10.4837 1.93859 10.432 1.83253 10.3569 1.74378C10.2818 1.65502 10.1858 1.58636 10.0775 1.54399C9.58992 1.35335 9.0709 1.25576 8.54734 1.25629ZM8.36604 2.66259L7.05844 3.97019C6.92721 4.10146 6.85349 4.27947 6.85349 4.46509C6.85349 4.6507 6.92721 4.82872 7.05844 4.95999L9.02264 6.94029C9.35304 7.22659 9.77584 7.19229 10.0278 6.94029L11.341 5.62709C11.2129 7.15659 9.99984 8.25629 8.54734 8.25629C8.19034 8.25629 7.77734 8.16669 7.47144 8.04489C7.18514 7.96509 6.94504 8.04349 6.76934 8.21849L3.93294 11.0549L2.94314 10.0651L5.78164 7.22659C5.87793 7.13031 5.94405 7.00805 5.9719 6.87476C5.99975 6.74148 5.98812 6.60296 5.93844 6.47619C5.81155 6.15116 5.74673 5.80521 5.74734 5.45629C5.74734 4.00379 6.85474 2.77599 8.36604 2.66259Z" fill="#1A1C1F"/>
</g>
<defs>
<clipPath id="clip0_2214_8582">
<rect width="14" height="14" fill="white"/>
</clipPath>
</defs>
</svg>

<svg xmlns="http://www.w3.org/2000/svg" width="14" height="14" fill="none"><g clip-path="url(#a)"><path fill="#1A1C1F" fill-rule="evenodd" d="M8.547 1.256a4.2 4.2 0 0 0-4.2 4.2c0 .572.095.865.142 1.082L1.458 9.57a.7.7 0 0 0 0 .991l1.974 1.98c.308.29.744.252.997 0l3.026-3.028a4.2 4.2 0 0 0 5.292-4.056 4.1 4.1 0 0 0-.327-1.617c-.191-.405-.774-.495-1.11-.16L9.533 5.455l-.99-.99 1.775-1.774a.7.7 0 0 0-.24-1.147 4.2 4.2 0 0 0-1.53-.288m-.181 1.407L7.058 3.97a.7.7 0 0 0 0 .99l1.965 1.98c.33.287.753.252 1.005 0l1.313-1.313c-.128 1.53-1.341 2.63-2.794 2.63-.357 0-.77-.09-1.076-.212a.69.69 0 0 0-.702.173l-2.836 2.837-.99-.99 2.839-2.838a.7.7 0 0 0 .156-.75 2.8 2.8 0 0 1 2.428-3.814" clip-rule="evenodd"/></g><defs><clipPath id="a"><path fill="#fff" d="M0 0h14v14H0z"/></clipPath></defs></svg>
